X:1
T:Title
%%score { ( 1 4 ) | ( 2 3 ) }
L:1/8
Q:1/4=108
M:4/4
K:G
V:1 treble nm="Grand Piano"
V:4 treble 
V:2 bass 
V:3 bass 
V:1
 [B,D]2 [DB]2 [DB]3 [DG] | [CE]2 [Ec]2 [Ec]2 [CE]2 | [B,D]2 [DB]2 [DB]3 [Gd] | [Fd]2 A2 A2 c2 | %4
w: D.~D.~Ford * * *||||
 [G,B,D]2 [DB]2 [DB]3 [DG] | [CE]2 [Ec]2 [Ec]2 [G,CE]2 | z2 .G2 z4 | [DB]2 [CA]2 [B,G]4 | %8
w: ||||
 d3 d d2 B2 | [Fc]3 [Fc] [Fc]2 [FA]2 | B3 B B2 G2 | z2 .A2 A4 | [Fd]3 [=Fd] [Ed]2 [EB]2 | %13
w: |||||
 [Ec]3 [Ec] [Dc]2 [CA]2 | [B,DB]3 [Dc] [Gd]2 [EGe]2 | [DGB]2 [CFA]2 [B,G]4 |] %16
w: |||
V:2
 [G,,G,]2 [G,,D,]2 [G,,G,]3 [B,,G,] | [C,G,]2 [C,G,]2 [C,G,]2 [C,G,]2 | %2
 [G,,G,]2 [G,,G,]2 [G,,G,]3 [B,,G,] | [D,A,]2 [D,F,D]2 [D,D]2- [D,A,D]2 | %4
 G,,2 [G,,D,]2 [G,,G,]3 [B,,G,] | [C,G,]2 [C,G,]2 [C,G,]2 C,2 | D,2 B,,G,, [B,,G,]3 [C,G,] | %7
 [D,G,]2 [D,F,]2 [G,,G,]4 | [G,B,G]3 [G,B,G] [G,B,G]2 [G,DG]2 | [D,D]3 [D,A,] [D,A,]2 [D,C]2 | %10
 [G,B,D]3 [F,A,^D] [E,G,E]2 [E,G,=D]2 | z2 .F,2 [D,C]2 z2 | [B,,B,]3 [B,,A,] [E,^G,]2 [E,G,]2 | %13
 [A,,A,]3 [A,,G,] [D,F,]2 [D,F,]2 | G,,3 [A,,A,] [B,,G,]2 [C,A,]2 | D,2 D,2 G,,4 |] %16
V:3
 x8 | x8 | x8 | z4 F,2 z2 | x8 | x8 | x8 | x8 | x8 | x8 | x8 | %11
 [A,,G,]2 A,,-[A,,=F,] ^F,2- [C,F,]2 | x8 | x8 | x8 | x8 |] %16
V:4
 x8 | x8 | x8 | x8 | x8 | x8 | [G,B,D]2 [G,D]-[G,DB] [=Fd]3 [Ec] | x8 | x8 | x8 | x8 | %11
 [^CB]2 C-[C^G] z2 D2 | x8 | x8 | x8 | x8 |] %16

